X: 221
M: C
L: 1/8
K: D
z/A/B/c/ |\
f>af>d e>ge>c | d2d>d d2d>e |
f2-f>e d>cB>A | A2^G2 A2d2 |\
c>ec>A B>dB>^G | A2A>A A2 :|
|: z/(A/B/c/) |\
d2-d>f a>fd>A | B2G>G G2e>f |\
g2-g>f e2d2 | c2A>A A2 z/A/B/c/ |
f>af>d e>ge>c | d2d>d d2d2 :|

